X: 15
T:Planxty Maggie Browne
T:Maggie Browne's Favorite
M:6/8
L:1/8
C:O'Carolan
R:dbl jig
Z:Richard Darcie
K:G
g|dBG Bcd| E2 E E2 c| AFD DEF| G2 G G2 g| dBG Bcd| EDE cBc| ABc def| g3 g2:||
a| bgb afd| efg gfe| dBg dBG| AFD D2 a| bgb afd| efg gfe| faf ge^c| d3 de=f|
ece dBd| cac BgB| Ace dBG|FAF DEF| GAB EFG| ABc def| gdB cAF| G3 G||

